src/assets/NoResults.svg

<svg width="191" height="163" viewBox="0 0 191 163" fill="none" xmlns="http://www.w3.org/2000/svg">
<path fill-rule="evenodd" clip-rule="evenodd" d="M190.5 81.1999C190.5 126.048 154.366 162.396 109.792 162.396C65.2182 162.396 29.0835 126.048 29.0835 81.1999C29.0835 36.3543 65.2182 0 109.792 0C154.366 0 190.5 36.3543 190.5 81.1999Z" fill="#DDE4E9" fill-opacity="0.272236"/>
<path d="M172.542 141.462L162.282 96.0216C159.591 102.455 152.994 107.696 141.487 108.217C112.842 109.511 117.127 77.961 117.154 77.7655H117.144L100.925 90.7989V77.7655H77.1401C71.3037 77.7655 66.0912 81.4335 64.0973 86.9541L58.7617 101.71H83.6513L96.9875 154.3H129.837V162.865L146.789 157.474L160.478 156.906C170.554 156.404 174.005 148.705 172.542 141.462Z" fill="white"/>
<path d="M172.542 141.462L162.282 96.0216C159.591 102.455 152.994 107.696 141.487 108.217C112.842 109.511 117.127 77.961 117.154 77.7655H117.144L100.925 90.7989V77.7655H77.1401C71.3037 77.7655 66.0912 81.4335 64.0973 86.9541L58.7617 101.71H83.6513L96.9875 154.3H129.837V162.865L146.789 157.474L160.478 156.906C170.554 156.404 174.005 148.705 172.542 141.462Z" fill="#242424"/>
<path fill-rule="evenodd" clip-rule="evenodd" d="M117.831 43.5164C117.615 43.4233 117.383 43.3655 117.155 43.3004C116.663 43.1598 116.154 43.0602 115.619 43.0602C114.509 43.0602 113.479 43.3944 112.606 43.953C108.686 41.1191 107.471 36.105 107.471 36.105C94.7472 36.105 87.3501 45.7609 87.3501 45.7609V59.1965C87.3501 62.8412 90.7223 65.5419 94.2529 64.7171L100.924 62.9613V90.7989L117.143 77.7654L117.155 77.7561V54.1451C117.164 54.1423 117.175 54.1386 117.186 54.1358C119.528 53.4497 121.249 51.2992 121.249 48.7232C121.249 46.3856 119.84 44.3803 117.831 43.5164Z" fill="#F5C5B6"/>
<path fill-rule="evenodd" clip-rule="evenodd" d="M96.9869 154.3L83.6507 101.71H0.5L16.0097 162.864H129.836V154.3H96.9869Z" fill="url(#paint0_linear)"/>
<path fill-rule="evenodd" clip-rule="evenodd" d="M118.909 135.318L109.04 141.564V154.3H129.836L134.778 139.591L118.909 135.318Z" fill="#F5C5B6"/>
<path fill-rule="evenodd" clip-rule="evenodd" d="M135.008 140.773L134.745 139.413L156.541 135.14L156.804 136.5L135.008 140.773Z" fill="#656565"/>
<path fill-rule="evenodd" clip-rule="evenodd" d="M146.932 137.915L139.216 101.021L140.56 100.732L148.277 137.626L146.932 137.915Z" fill="#656565"/>
<path fill-rule="evenodd" clip-rule="evenodd" d="M151.323 70.988C136.516 66.4728 132.398 47.2988 123.29 34.7829C122.098 32.7209 120.526 30.9846 118.709 29.5835C118.698 29.5742 118.689 29.564 118.679 29.5547V29.5593C115.2 26.8875 110.63 25.1431 106.296 25.1431C96.7824 25.1431 83.5912 29.5547 87.3513 45.7608C87.3513 45.7608 94.7484 36.1049 107.472 36.1049C107.472 36.1049 108.687 41.119 112.607 43.9529C113.48 43.3943 114.51 43.0601 115.621 43.0601C116.156 43.0601 116.664 43.1597 117.156 43.3003C117.384 43.3655 117.616 43.4232 117.832 43.5163C119.842 44.3802 121.251 46.3855 121.251 48.7231C121.251 51.2991 119.529 53.4496 117.188 54.1357C117.177 54.1385 117.166 54.1422 117.156 54.145V77.756L117.154 77.7653C117.127 77.9608 112.738 111.18 141.382 109.886C152.889 109.364 159.591 102.454 162.282 96.0215C166.308 86.3953 159.734 73.5528 151.323 70.988Z" fill="#2C2C4E"/>
<defs>
<linearGradient id="paint0_linear" x1="-9.49919" y1="157.636" x2="44.8377" y2="66.8501" gradientUnits="userSpaceOnUse">
<stop stop-color="#FFB36D"/>
<stop offset="1" stop-color="#FF8888"/>
</linearGradient>
</defs>
</svg>

<svg width="191" height="163" viewBox="0 0 191 163" fill="none" xmlns="http://www.w3.org/2000/svg"><path fill-rule="evenodd" clip-rule="evenodd" d="M190.5 81.2c0 44.848-36.134 81.196-80.708 81.196S29.083 126.048 29.083 81.2c0-44.846 36.135-81.2 80.709-81.2C154.366 0 190.5 36.354 190.5 81.2z" fill="#DDE4E9" fill-opacity=".272"/><path d="M172.542 141.462l-10.26-45.44c-2.691 6.433-9.288 11.674-20.795 12.195-28.645 1.294-24.36-30.256-24.333-30.451h-.01l-16.219 13.033V77.765H77.14c-5.836 0-11.049 3.668-13.043 9.19l-5.335 14.755h24.89l13.335 52.59h32.85v8.565l16.952-5.391 13.689-.568c10.076-.502 13.527-8.201 12.064-15.444z" fill="#fff"/><path d="M172.542 141.462l-10.26-45.44c-2.691 6.433-9.288 11.674-20.795 12.195-28.645 1.294-24.36-30.256-24.333-30.451h-.01l-16.219 13.033V77.765H77.14c-5.836 0-11.049 3.668-13.043 9.19l-5.335 14.755h24.89l13.335 52.59h32.85v8.565l16.952-5.391 13.689-.568c10.076-.502 13.527-8.201 12.064-15.444z" fill="#242424"/><path fill-rule="evenodd" clip-rule="evenodd" d="M117.831 43.516c-.216-.093-.448-.15-.676-.216a5.562 5.562 0 00-1.536-.24c-1.11 0-2.14.334-3.013.893-3.92-2.834-5.135-7.848-5.135-7.848-12.724 0-20.12 9.656-20.12 9.656v13.435c0 3.645 3.371 6.346 6.902 5.521l6.671-1.756V90.8l16.219-13.034.012-.009v-23.61c.009-.004.02-.007.031-.01a5.64 5.64 0 004.063-5.413 5.662 5.662 0 00-3.418-5.207z" fill="#F5C5B6"/><path fill-rule="evenodd" clip-rule="evenodd" d="M96.987 154.3L83.65 101.71H.5l15.51 61.154h113.826V154.3h-32.85z" fill="url(#paint0_linear)"/><path fill-rule="evenodd" clip-rule="evenodd" d="M118.909 135.318l-9.869 6.246V154.3h20.796l4.942-14.709-15.869-4.273z" fill="#F5C5B6"/><path fill-rule="evenodd" clip-rule="evenodd" d="M135.008 140.773l-.263-1.36 21.796-4.273.263 1.36-21.796 4.273z" fill="#656565"/><path fill-rule="evenodd" clip-rule="evenodd" d="M146.932 137.915l-7.716-36.894 1.344-.289 7.717 36.894-1.345.289z" fill="#656565"/><path fill-rule="evenodd" clip-rule="evenodd" d="M151.323 70.988c-14.807-4.515-18.925-23.69-28.033-36.205a17.838 17.838 0 00-4.581-5.2l-.03-.028v.004c-3.479-2.672-8.049-4.416-12.383-4.416-9.514 0-22.705 4.412-18.945 20.618 0 0 7.397-9.656 20.121-9.656 0 0 1.215 5.014 5.135 7.848a5.572 5.572 0 013.014-.893c.535 0 1.043.1 1.535.24.228.066.46.123.676.216a5.662 5.662 0 013.419 5.207 5.641 5.641 0 01-4.063 5.413c-.011.002-.022.006-.032.009v23.611l-.002.01c-.027.195-4.416 33.414 24.228 32.12 11.507-.522 18.209-7.432 20.9-13.864 4.026-9.627-2.548-22.47-10.959-25.034z" fill="#2C2C4E"/><defs><linearGradient id="paint0_linear" x1="-9.499" y1="157.636" x2="44.838" y2="66.85" gradientUnits="userSpaceOnUse"><stop stop-color="#FFB36D"/><stop offset="1" stop-color="#F88"/></linearGradient></defs></svg>
